contributed-vectors/roadtrippers.svg

<svg xmlns="http://www.w3.org/2000/svg" xml:space="preserve" style="fill-rule:evenodd;clip-rule:evenodd;stroke-linejoin:round;stroke-miterlimit:2" viewBox="0 0 192 192"><path d="M164.5 21.5c0-5.519-4.481-10-10-10h-133c-5.519 0-10 4.481-10 10v133c0 5.519 4.481 10 10 10h133c5.519 0 10-4.481 10-10v-133Z" style="fill:#728dbe" transform="translate(8 8)"/><path d="M68.635 130.335s-6.814 17.445 5.861 11.994c12.675-5.452 12.13-5.043 16.491-25.214 3.68-25.895 16.9-21.398 15.265 5.315-1.091 31.484 31.284 21.161 33.527 11.176.933-6.699-14.257 10.313-13.559-18.698-.059-2.744.737-12.941-9.61-17.01 14.534-7.355 18.249-4.806 25.617-19.333 18.488-36.452-82.922-45.792-92.555-.293-7.99 37.74 44.859 14.856 14.738.273-11.702-5.666 20.004-23.339 26.441-21.5 1.908.546-22.216 73.29-22.216 73.29Zm29.52-40.769a4.523 4.523 0 0 0 5.344 4.678 18.291 18.291 0 0 0 8.635-3.708c7.594-5.988 19.725-30.99 1.477-34.99-5.406-1.185-13.546 22.957-15.456 34.02Z" style="fill:#fff" transform="matrix(.67437 0 0 .67437 30.817 31.546)"/><path d="M67.873 87.321s-8.653 11.916-8.653 23.701c0 6.83 3.877 12.375 8.653 12.375 4.775 0 8.653-5.545 8.653-12.375 0-11.785-8.653-23.701-8.653-23.701Z" style="fill:#f9de81" transform="matrix(1.02788 0 0 -.71872 13.036 178.322)"/><circle cx="76.395" cy="98.966" r="4.47" style="fill:#c39a54" transform="matrix(.67437 0 0 .67437 31.282 31.914)"/></svg>

<?xml version="1.0" encoding="UTF-8" standalone="no"?>
<!DOCTYPE svg PUBLIC "-//W3C//DTD SVG 1.1//EN" "http://www.w3.org/Graphics/SVG/1.1/DTD/svg11.dtd">
<svg width="100%" height="100%" viewBox="0 0 192 192" version="1.1" xmlns="http://www.w3.org/2000/svg" xmlns:xlink="http://www.w3.org/1999/xlink" xml:space="preserve" xmlns:serif="http://www.serif.com/" style="fill-rule:evenodd;clip-rule:evenodd;stroke-linejoin:round;stroke-miterlimit:2;">
    <g transform="matrix(1,0,0,1,8,8)">
        <path d="M164.5,21.5C164.5,15.981 160.019,11.5 154.5,11.5L21.5,11.5C15.981,11.5 11.5,15.981 11.5,21.5L11.5,154.5C11.5,160.019 15.981,164.5 21.5,164.5L154.5,164.5C160.019,164.5 164.5,160.019 164.5,154.5L164.5,21.5Z" style="fill:rgb(114,141,190);"/>
    </g>
    <g transform="matrix(0.674375,0,0,0.674375,30.8173,31.5459)">
        <path d="M68.635,130.335C68.635,130.335 61.821,147.78 74.496,142.329C87.171,136.877 86.626,137.286 90.987,117.115C94.667,91.22 107.887,95.717 106.252,122.43C105.161,153.914 137.536,143.591 139.779,133.606C140.712,126.907 125.522,143.919 126.22,114.908C126.161,112.164 126.957,101.967 116.61,97.898C131.144,90.543 134.859,93.092 142.227,78.565C160.715,42.113 59.305,32.773 49.672,78.272C41.682,116.012 94.531,93.128 64.41,78.545C52.708,72.879 84.414,55.206 90.851,57.045C92.759,57.591 68.635,130.335 68.635,130.335ZM98.155,89.566C98.084,90.949 98.651,92.289 99.693,93.201C100.735,94.113 102.137,94.498 103.499,94.244C106.119,93.86 109.267,92.797 112.134,90.536C119.728,84.548 131.859,59.546 113.611,55.546C108.205,54.361 100.065,78.503 98.155,89.566Z" style="fill:white;"/>
        <g transform="matrix(1.52419,5.61414e-17,-5.61414e-17,-1.06576,-26.3673,217.647)">
            <path d="M67.873,87.321C67.873,87.321 59.22,99.237 59.22,111.022C59.22,117.852 63.097,123.397 67.873,123.397C72.648,123.397 76.526,117.852 76.526,111.022C76.526,99.237 67.873,87.321 67.873,87.321Z" style="fill:rgb(249,222,129);"/>
        </g>
        <g transform="matrix(1,0,0,1,0.689084,0.545164)">
            <circle cx="76.395" cy="98.966" r="4.47" style="fill:rgb(195,154,84);"/>
        </g>
    </g>
</svg>
